X:197
T: Schnes Blmelein (3-1), S. 13
N: P0972
O: Lothringen
S: PINCK, Louis: Verklingende Weisen, Bd3, Metz 1933]
R: yyy]
M: 4/4
L: 1/8
K: F
AB | c3BA2GG | A2G2F2
GG | ABcBA2G2 | F4z2
GG | ABcBA2G2 | F4z2
c2 | c3BA2G2 | F4z2
cc | d2ccBABd | c4z2
AB | c3BA2GG | A2G2F2
GG | ABcBA2G2 | F4z2
GG | ABcBA2G2 | F4z2

@@@ Tune index: 7747
